src/16/actions/adjustrow.svg

<svg xmlns="http://www.w3.org/2000/svg" viewBox="0 0 16 16"><path d="M8 2L6 4h1v2H2v4h5v2H6l2 2 2-2H9v-2h5V6H9V4h1L8 2zM3 7h3v2H3V7zm4 0h2v2H7V7zm3 0h3v2h-3V7z" fill="currentColor" color="#5d656b"/></svg>

<svg xmlns="http://www.w3.org/2000/svg" viewBox="0 0 16 16">
  <defs id="defs3051">
    <style type="text/css" id="current-color-scheme">
      .ColorScheme-Text {
        color:#5d656b;
      }
      </style>
  </defs>
 <path style="fill:currentColor;fill-opacity:1;stroke:none" 
     d="M 8 2 L 6 4 L 7 4 L 7 6 L 2 6 L 2 7 L 2 10 L 3 10 L 7 10 L 7 12 L 6 12 L 8 14 L 10 12 L 9 12 L 9 10 L 14 10 L 14 7 L 14 6 L 9 6 L 9 4 L 10 4 L 8 2 z M 3 7 L 6 7 L 6 9 L 3 9 L 3 7 z M 7 7 L 9 7 L 9 9 L 7 9 L 7 7 z M 10 7 L 13 7 L 13 9 L 10 9 L 10 7 z "
     class="ColorScheme-Text"
     />
</svg>
